X:1
T:Isaac Watts, 1719 (Psalm 122)   86. 86. (C. M.)
T:C Major Oliver Holden, 1796
T:Canton No copyright. Transcribed from The Union Harmony, 1796.
%%score [ 1 2 3 4 ]
L:1/8
M:4/4
K:C
V:1 treble nm="Treble" snm="Tr."
V:2 treble nm="Counter" snm="C."
V:3 treble-8 nm="Tenor" snm="T."
V:4 bass nm="Bass" snm="B."
V:1
 c4 e2 e2 | d2 d2 g2 f2 | e4 e4 | d2 B2 c2 c2 | B8 | c4 c2 c2 | c2 c2 ed ed | (c4 B2) G2 | %8
w: ||||||||
 G2 G2 c2 d2 | e4 z4 | z8 | z4 c4 | cB cd BG c2 | d2 c2 B2 e2 | f2 e2 d2 c2 | d4 e4 | e2 e2 e2 e2 | %17
w: |||Up|to * His * courts * with|joys un- known The|ho- ly tribes re-|pair; The|Son of Da- vid|
 fe dc d2 c2 | c2 c2 e2 d2 | e4 c4 | c2 c2 c2 c2 | B2 B2 B2 d2 | g2 f2 e2 d2 | e8 |] %24
w: holds * the * throne, *|||||||
V:2
 E4 G2 G2 | G2 G2 G2 G2 | G4 G4 | G2 G2 G2 ^F2 | G8 | E4 F2 F2 | E2 E2 G2 G2 | G6 F2 | %8
w: 1.~How did my|heart re- joice to|hear My|friends de- vout- ly|say,|"In Zi- on|let us all ap-|pear, And|
 E2 E2 G2 F2 | E4 z4 | z8 | z8 | z4 G2 GG | G2 G2 G2 G2 | G2 G2 F2 E2 | D2 C2 G2 G2 | G2 G2 G2 G2 | %17
w: keep the sol- emn|day!"|||Up to His|courts with joys un-|known The ho- ly|tribes re- pair; The|Son of Da- vid|
 G2 G2 G2 G2 | F2 F2 E2 F2 | G4 E4 | G2 G2 G2 G2 | F2 D2 D2 G2 | C2 D2 G2 F2 | E8 |] %24
w: holds the throne, And|sits in judg- ment|there; The|Son of Da- vid|holds the throne, And|sits in judg- ment|there.|
V:3
 G4 c2 c2 | B2 B2 d2 d2 | c4 c4 | d2 d2 cB A2 | G8 | E4 A2 A2 | G2 G2 cB cd | (e4 d2) d2 | %8
w: ||||||||
 cB cd e2 d2 | c4 z4 | z4 c4 | cB cd ed cB | c2 c2 d2 e2 | f2 e2 d2 c2 | d4 z4 | z4 c4 | %16
w: ||Up|to * His * courts * with *|joys un- known The|ho- ly tribes re-|pair,|The|
 c2 c2 c2 c2 | dc de f2 e2 | d2 d2 c2 B2 | c4 c4 | e2 e2 e2 e2 | g2 g2 g2 f2 | e2 d2 c2 B2 | c8 |] %24
w: Son of Da- vid|holds * the * throne, *|||||||
V:4
 C,4 C,2 C,2 | G,2 G,2 G,2 G,2 | C,4 C,4 | G,2 G,2 C,2 D,2 | G,,8 | C,4 F,2 F,2 | E,2 E,2 C,2 C,2 | %7
w: |||||||
 G,6 G,2 | E,2 C,2 G,2 G,2 | C,4 G,4 | A,G, A,B, CB, A,G, | A,G, A,B, C2 C,2 | F,2 E,2 D,2 C,2 | %13
w: ||* Up|to * His * courts * with *|joys * un- * known The|ho- ly tribes re-|
 G,8- | G,8- | G,4 C,4 | C,2 C,2 C,2 C,2 | G,2 G,2 G,2 C,2 | F,2 F,2 G,2 G,2 | C,4 C,4 | %20
w: pair~|_|* The|Son of Da- vid|holds the throne, *|||
 C2 C2 C2 C2 | G,2 G,2 G,2 G,2 | G,2 G,2 G,2 G,2 | C,8 |] %24
w: ||||

